img/icons/design/envelope.svg

<svg xmlns="http://www.w3.org/2000/svg" viewBox="0 0 40 48"><path d="M0 0v39.06A9 9 0 008.94 48h22.12A9 9 0 0040 39.06V0zm23.86 10a4 4 0 00-7.72 0h-6.08a5 5 0 01-4.64-3.14L3.48 2h33l-1.9 4.86A5 5 0 0129.94 10zM22 11a2 2 0 11-2-2 2 2 0 012 2zm9.06 35H8.94A6.94 6.94 0 012 39.06V3.69L3.56 7.6a7 7 0 006.5 4.4h6.08a4 4 0 007.72 0h6.08a7 7 0 006.5-4.4L38 3.69v35.37A6.94 6.94 0 0131.06 46z" fill="#231f20" data-name="Layer 2"/></svg>

<svg xmlns="http://www.w3.org/2000/svg" viewBox="0 0 40 48"><defs><style>.cls-1{fill:#231f20;}</style></defs><title>Envelope</title><g id="Layer_2" data-name="Layer 2"><g id="Icons"><g id="Design"><path id="Envelope" class="cls-1" d="M0,0V39.06A9,9,0,0,0,8.94,48H31.06A9,9,0,0,0,40,39.06V0ZM23.86,10a4,4,0,0,0-7.72,0H10.06A5,5,0,0,1,5.42,6.86L3.48,2h33L34.58,6.86A5,5,0,0,1,29.94,10ZM22,11a2,2,0,1,1-2-2A2,2,0,0,1,22,11Zm9.06,35H8.94A6.94,6.94,0,0,1,2,39.06V3.69L3.56,7.6a7,7,0,0,0,6.5,4.4h6.08a4,4,0,0,0,7.72,0h6.08a7,7,0,0,0,6.5-4.4L38,3.69V39.06A6.94,6.94,0,0,1,31.06,46Z"/></g></g></g></svg>
